src/img/sbb/globe_210_large.svg

<svg xmlns="http://www.w3.org/2000/svg" width="48" height="48" viewBox="0 0 48 48">
  <path fill="none" stroke="#000" stroke-width="2" d="M39,23.0004 C39,14.1644 31.836,7.0004 23,7.0004 C14.164,7.0004 7,14.1644 7,23.0004 C7,31.8364 14.164,39.0004 23,39.0004 C31.836,39.0004 39,31.8364 39,23.0004 Z M37,31.058 L9,31.058 M39,23.058 L7,23.058 M37,15.058 L9,15.058 M17.7392,38.0972 C14.6992,34.4712 12.7652,29.0572 12.7652,23.0012 C12.7652,16.9432 14.6992,11.5292 17.7392,7.9032 M17.7392,7.9038 C14.6992,11.5278 12.7652,16.9438 12.7652,22.9998 C12.7652,29.0578 14.6992,34.4698 17.7392,38.0978 M28.2618,7.9038 C31.3018,11.5278 33.2338,16.9438 33.2338,22.9998 C33.2338,29.0578 31.3018,34.4698 28.2618,38.0978 M28.2618,38.0972 C31.3018,34.4712 33.2338,29.0572 33.2338,23.0012 C33.2338,16.9432 31.3018,11.5292 28.2618,7.9032 M23,7.0004 L23,39.0004"/>
</svg>

<svg xmlns="http://www.w3.org/2000/svg" viewBox="0 0 48 48"><path fill="none" stroke="#000" stroke-width="2" d="M39 23c0-8.836-7.164-16-16-16S7 14.164 7 23s7.164 16 16 16 16-7.164 16-16zm-2 8.058H9m30-8H7m30-8H9m8.74 23.04C14.7 34.47 12.764 29.057 12.764 23c0-6.058 1.934-11.472 4.974-15.098m0 0c-3.04 3.625-4.974 9.04-4.974 15.097 0 6.058 1.934 11.47 4.974 15.098M28.262 7.904c3.04 3.624 4.972 9.04 4.972 15.096 0 6.058-1.932 11.47-4.972 15.098m0 0c3.04-3.627 4.972-9.04 4.972-15.097 0-6.058-1.932-11.472-4.972-15.098M23 7v32"/></svg>
